src/platform/packages/shared/kbn-custom-icons/assets/cpp.svg

<svg
  width="64"
  height="64"
  viewBox="-2 -2 28 28"
  fill="none"
  xmlns="http://www.w3.org/2000/svg"
>
  <path
    d="M12.207 16.278C11.1241 17.343 9.63879 18 8 18C4.68629 18 2 15.3137 2 12C2 8.68629 4.68629 6 8 6C9.67492 6 11.1896 6.6863 12.278 7.79303L13.6923 6.37878C12.2418 4.91014 10.2272 4 8 4C3.58172 4 0 7.58172 0 12C0 16.4183 3.58172 20 8 20C10.1911 20 12.1764 19.1192 13.6212 17.6923L12.207 16.278Z"
    fill="currentColor"
  />
  <path d="M15 9H13V11H11V13H13V15H15V13H17V11H15V9Z" fill="currentColor" />
  <path d="M20 9H22V11H24V13H22V15H20V13H18V11H20V9Z" fill="currentColor" />
</svg>

<svg xmlns="http://www.w3.org/2000/svg" width="64" height="64" fill="none" viewBox="-2 -2 28 28"><path fill="currentColor" d="M12.207 16.278a6 6 0 1 1 .071-8.485l1.414-1.414a8 8 0 1 0-.071 11.314z"/><path fill="currentColor" d="M15 9h-2v2h-2v2h2v2h2v-2h2v-2h-2zM20 9h2v2h2v2h-2v2h-2v-2h-2v-2h2z"/></svg>
